glass/images/kheder.svg

<svg width="1920" height="1041" viewBox="0 0 1920 1041" fill="none" xmlns="http://www.w3.org/2000/svg"><path d="M512.195 620.986L20.077 1019.71h672.274l487.159-398.723-667.315-.001z" fill="#373E4B"/><path d="M985.648 473.132l-610.29 529.598h886.012l603.75-529.597-879.472-.001z" fill="#373E4B" filter="url(#a)"/><path d="M1641.47 472.207l-616.2 530.523h994.61l608.85-530.523h-987.26z" fill="#373E4B" filter="url(#b)"/><path stroke="#D4D6D9" d="M711.855 865.133l364.785-310.068M679.625 865.133l364.785-310.068M695.741 865.133l364.779-310.068M647.397 865.133l364.783-310.068M663.511 865.133l364.779-310.068M615.167 865.133l364.782-310.068M631.283 865.133l364.781-310.068M599.053 865.133l364.782-310.068M582.939 865.133L947.72 555.065M550.71 865.133l364.782-310.068M566.825 865.133l364.781-310.068M518.481 865.133l364.781-310.068M534.595 865.133l364.782-310.068M454.023 865.133l364.781-310.068M486.251 865.133l364.782-310.068M421.793 865.133l364.782-310.068M502.366 865.133l364.781-310.068M437.909 865.133L802.69 555.065M470.137 865.133l364.782-310.068M389.565 865.133l364.781-310.068M405.679 865.133l364.782-310.068M357.335 865.133l364.782-310.068M373.451 865.133l364.781-310.068M341.221 865.133l364.782-310.068"/><path d="M147.573 834.035L40.667 924.402h129.918l105.947-90.367H147.573z" fill="#50535A"/><path d="M1273.9 623.605L535.408-17.066l-17.094-24.205L2324.91-51.45l-41.08 640.029-1009.93 35.025z" fill="#F9F9F9"/><mask id="c" maskUnits="userSpaceOnUse" x="1088" y="222" width="562" height="327"><path fill="#C4C4C4" d="M1088.84 222.036h560.331v326.331H1088.84z"/></mask><g mask="url(#c)" stroke="#0047FF" stroke-width=".5"><path d="M1542.06 532.422l364.79-310.067M1548.92 540.045l364.78-310.068M1554.38 548.177l364.78-310.068M1509.83 532.422l364.79-310.067M1525.95 532.422l364.78-310.067M1477.61 532.422l364.78-310.067M1493.72 532.422l364.78-310.067M1445.38 532.422l364.78-310.067M1461.49 532.422l364.78-310.067M1429.26 532.422l364.78-310.067M1413.15 532.422l364.78-310.067M1380.92 532.422l364.78-310.067M1397.03 532.422l364.78-310.067M1348.69 532.422l364.78-310.067M1364.8 532.422l364.79-310.067M1284.23 532.422l364.78-310.067M1316.46 532.422l364.78-310.067M1252 532.422l364.78-310.067M1332.57 532.422l364.79-310.067M1268.12 532.422l364.78-310.067M1300.35 532.422l364.78-310.067M1219.77 532.422l364.79-310.067M1235.89 532.422l364.78-310.067M1187.54 532.422l364.79-310.067M1203.66 532.422l364.78-310.067M1171.43 532.422l364.78-310.067"/></g><path stroke="#757575" stroke-opacity=".35" d="M1697.44 731.537l364.78-310.068M1665.21 731.537l364.78-310.068M1681.32 731.537l364.78-310.068M1632.98 731.537l364.78-310.068M1649.09 731.537l364.78-310.068M1600.75 731.537l364.78-310.068M1616.86 731.537l364.79-310.068M1584.63 731.537l364.79-310.068M1568.52 731.537l364.78-310.068M1536.29 731.537l364.78-310.068M1552.41 731.537l364.78-310.068M1504.06 731.537l364.78-310.068M1520.18 731.537l364.78-310.068M1439.6 731.537l364.79-310.068M1471.83 731.537l364.78-310.068M1407.37 731.537l364.79-310.068M1487.95 731.537l364.78-310.068M1423.49 731.537l364.78-310.068M1455.72 731.537l364.78-310.068M1375.15 731.537l364.78-310.068M1391.26 731.537l364.78-310.068M1342.92 731.537l364.78-310.068M1359.03 731.537l364.78-310.068M1326.8 731.537l364.78-310.068M1334.47 1039.93l364.78-310.065M1302.24 1039.93l364.78-310.065M1318.35 1039.93l364.79-310.065M1270.01 1039.93l364.78-310.065M1286.12 1039.93l364.79-310.065M1237.78 1039.93l364.78-310.065M1253.9 1039.93l364.78-310.065M1221.67 1039.93l364.78-310.065M1205.55 1039.93l364.78-310.065M1173.32 1039.93l364.79-310.065M1189.44 1039.93l364.78-310.065M1141.09 1039.93l364.79-310.065M1157.21 1039.93l364.78-310.065M1076.64 1039.93l364.78-310.065M1108.86 1039.93l364.79-310.065M1044.41 1039.93l364.78-310.065M1124.98 1039.93l364.78-310.065M1060.52 1039.93l364.78-310.065M1092.75 1039.93l364.78-310.065M1012.18 1039.93l364.78-310.065M1028.29 1039.93l364.78-310.065M979.949 1039.93l364.781-310.065M996.064 1039.93l364.786-310.065M963.834 1039.93l364.786-310.065"/><path d="M1490.31 959.014l-71.8 60.696h19.85l71.16-60.696h-19.21z" fill="#fff"/><path stroke="#D4D6D9" stroke-opacity=".5" d="M185.928 309.687L550.71-.381M153.699 309.687L518.48-.381M169.814 309.687L534.595-.381M121.47 309.687L486.252-.381M137.584 309.687L502.366-.381M89.241 309.687L454.022-.381M105.356 309.687L470.137-.381M73.126 309.687L437.908-.381M57.012 309.687L421.794-.381M24.784 309.687L389.565-.381M40.898 309.687L405.679-.381M-7.446 309.687L357.336-.381M8.668 309.687L373.45-.381M-71.904 309.687L292.878-.381M-39.675 309.687L325.106-.381M-104.133 309.687L260.648-.381M-23.561 309.687L341.22-.381M-88.018 309.687L276.763-.381M-55.79 309.687L308.992-.381M-136.362 309.687L228.42-.381M-120.248 309.687L244.534-.381M-168.591 309.687L196.19-.381M-152.476 309.687L212.305-.381M-184.706 309.687L180.076-.381"/><defs><filter id="a" x="355.358" y="453.132" width="1529.76" height="569.6" filterUnits="userSpaceOnUse" color-interpolation-filters="sRGB"><feFlood flood-opacity="0" result="BackgroundImageFix"/><feColorMatrix in="SourceAlpha" values="0 0 0 0 0 0 0 0 0 0 0 0 0 0 0 0 0 0 127 0"/><feOffset/><feGaussianBlur stdDeviation="10"/><feColorMatrix values="0 0 0 0 0 0 0 0 0 0 0 0 0 0 0 0 0 0 0.2 0"/><feBlend in2="BackgroundImageFix" result="effect1_dropShadow"/><feBlend in="SourceGraphic" in2="effect1_dropShadow" result="shape"/></filter><filter id="b" x="1005.27" y="452.207" width="1643.47" height="570.525" filterUnits="userSpaceOnUse" color-interpolation-filters="sRGB"><feFlood flood-opacity="0" result="BackgroundImageFix"/><feColorMatrix in="SourceAlpha" values="0 0 0 0 0 0 0 0 0 0 0 0 0 0 0 0 0 0 127 0"/><feOffset/><feGaussianBlur stdDeviation="10"/><feColorMatrix values="0 0 0 0 0 0 0 0 0 0 0 0 0 0 0 0 0 0 0.2 0"/><feBlend in2="BackgroundImageFix" result="effect1_dropShadow"/><feBlend in="SourceGraphic" in2="effect1_dropShadow" result="shape"/></filter></defs></svg>

<svg width="1920" height="1041" viewBox="0 0 1920 1041" fill="none" xmlns="http://www.w3.org/2000/svg">
<path d="M512.195 620.986L20.0771 1019.71L692.351 1019.71L1179.51 620.987L512.195 620.986Z" fill="#373E4B"/>
<g filter="url(#filter0_d)">
<path d="M985.648 473.132L375.358 1002.73L1261.37 1002.73L1865.12 473.133L985.648 473.132Z" fill="#373E4B"/>
</g>
<g filter="url(#filter1_d)">
<path d="M1641.47 472.207L1025.27 1002.73L2019.88 1002.73L2628.73 472.207L1641.47 472.207Z" fill="#373E4B"/>
</g>
<line x1="711.855" y1="865.133" x2="1076.64" y2="555.065" stroke="#D4D6D9"/>
<line x1="679.625" y1="865.133" x2="1044.41" y2="555.065" stroke="#D4D6D9"/>
<line x1="695.741" y1="865.133" x2="1060.52" y2="555.065" stroke="#D4D6D9"/>
<line x1="647.397" y1="865.133" x2="1012.18" y2="555.065" stroke="#D4D6D9"/>
<line x1="663.511" y1="865.133" x2="1028.29" y2="555.065" stroke="#D4D6D9"/>
<line x1="615.167" y1="865.133" x2="979.949" y2="555.065" stroke="#D4D6D9"/>
<line x1="631.283" y1="865.133" x2="996.064" y2="555.065" stroke="#D4D6D9"/>
<line x1="599.053" y1="865.133" x2="963.835" y2="555.065" stroke="#D4D6D9"/>
<line x1="582.939" y1="865.133" x2="947.72" y2="555.065" stroke="#D4D6D9"/>
<line x1="550.71" y1="865.133" x2="915.492" y2="555.065" stroke="#D4D6D9"/>
<line x1="566.825" y1="865.133" x2="931.606" y2="555.065" stroke="#D4D6D9"/>
<line x1="518.481" y1="865.133" x2="883.262" y2="555.065" stroke="#D4D6D9"/>
<line x1="534.595" y1="865.133" x2="899.377" y2="555.065" stroke="#D4D6D9"/>
<line x1="454.023" y1="865.133" x2="818.804" y2="555.065" stroke="#D4D6D9"/>
<line x1="486.251" y1="865.133" x2="851.033" y2="555.065" stroke="#D4D6D9"/>
<line x1="421.793" y1="865.133" x2="786.575" y2="555.065" stroke="#D4D6D9"/>
<line x1="502.366" y1="865.133" x2="867.147" y2="555.065" stroke="#D4D6D9"/>
<line x1="437.909" y1="865.133" x2="802.69" y2="555.065" stroke="#D4D6D9"/>
<line x1="470.137" y1="865.133" x2="834.919" y2="555.065" stroke="#D4D6D9"/>
<line x1="389.565" y1="865.133" x2="754.346" y2="555.065" stroke="#D4D6D9"/>
<line x1="405.679" y1="865.133" x2="770.461" y2="555.065" stroke="#D4D6D9"/>
<line x1="357.335" y1="865.133" x2="722.117" y2="555.065" stroke="#D4D6D9"/>
<line x1="373.451" y1="865.133" x2="738.232" y2="555.065" stroke="#D4D6D9"/>
<line x1="341.221" y1="865.133" x2="706.003" y2="555.065" stroke="#D4D6D9"/>
<path d="M147.573 834.035L40.667 924.402L170.585 924.402L276.532 834.035L147.573 834.035Z" fill="#50535A"/>
<path d="M1273.9 623.605L535.408 -17.0664L518.314 -41.2712L2324.91 -51.4487L2283.83 588.58L1273.9 623.605Z" fill="#F9F9F9"/>
<mask id="mask0" mask-type="alpha" maskUnits="userSpaceOnUse" x="1088" y="222" width="562" height="327">
<rect x="1088.84" y="222.036" width="560.331" height="326.331" fill="#C4C4C4"/>
</mask>
<g mask="url(#mask0)">
<line x1="1542.06" y1="532.422" x2="1906.85" y2="222.355" stroke="#0047FF" stroke-width="0.5"/>
<line x1="1548.92" y1="540.045" x2="1913.7" y2="229.977" stroke="#0047FF" stroke-width="0.5"/>
<line x1="1554.38" y1="548.177" x2="1919.16" y2="238.109" stroke="#0047FF" stroke-width="0.5"/>
<line x1="1509.83" y1="532.422" x2="1874.62" y2="222.355" stroke="#0047FF" stroke-width="0.5"/>
<line x1="1525.95" y1="532.422" x2="1890.73" y2="222.355" stroke="#0047FF" stroke-width="0.5"/>
<line x1="1477.61" y1="532.422" x2="1842.39" y2="222.355" stroke="#0047FF" stroke-width="0.5"/>
<line x1="1493.72" y1="532.422" x2="1858.5" y2="222.355" stroke="#0047FF" stroke-width="0.5"/>
<line x1="1445.38" y1="532.422" x2="1810.16" y2="222.355" stroke="#0047FF" stroke-width="0.5"/>
<line x1="1461.49" y1="532.422" x2="1826.27" y2="222.355" stroke="#0047FF" stroke-width="0.5"/>
<line x1="1429.26" y1="532.422" x2="1794.04" y2="222.355" stroke="#0047FF" stroke-width="0.5"/>
<line x1="1413.15" y1="532.422" x2="1777.93" y2="222.355" stroke="#0047FF" stroke-width="0.5"/>
<line x1="1380.92" y1="532.422" x2="1745.7" y2="222.355" stroke="#0047FF" stroke-width="0.5"/>
<line x1="1397.03" y1="532.422" x2="1761.81" y2="222.355" stroke="#0047FF" stroke-width="0.5"/>
<line x1="1348.69" y1="532.422" x2="1713.47" y2="222.355" stroke="#0047FF" stroke-width="0.5"/>
<line x1="1364.8" y1="532.422" x2="1729.59" y2="222.355" stroke="#0047FF" stroke-width="0.5"/>
<line x1="1284.23" y1="532.422" x2="1649.01" y2="222.355" stroke="#0047FF" stroke-width="0.5"/>
<line x1="1316.46" y1="532.422" x2="1681.24" y2="222.355" stroke="#0047FF" stroke-width="0.5"/>
<line x1="1252" y1="532.422" x2="1616.78" y2="222.355" stroke="#0047FF" stroke-width="0.5"/>
<line x1="1332.57" y1="532.422" x2="1697.36" y2="222.355" stroke="#0047FF" stroke-width="0.5"/>
<line x1="1268.12" y1="532.422" x2="1632.9" y2="222.355" stroke="#0047FF" stroke-width="0.5"/>
<line x1="1300.35" y1="532.422" x2="1665.13" y2="222.355" stroke="#0047FF" stroke-width="0.5"/>
<line x1="1219.77" y1="532.422" x2="1584.56" y2="222.355" stroke="#0047FF" stroke-width="0.5"/>
<line x1="1235.89" y1="532.422" x2="1600.67" y2="222.355" stroke="#0047FF" stroke-width="0.5"/>
<line x1="1187.54" y1="532.422" x2="1552.33" y2="222.355" stroke="#0047FF" stroke-width="0.5"/>
<line x1="1203.66" y1="532.422" x2="1568.44" y2="222.355" stroke="#0047FF" stroke-width="0.5"/>
<line x1="1171.43" y1="532.422" x2="1536.21" y2="222.355" stroke="#0047FF" stroke-width="0.5"/>
</g>
<line x1="1697.44" y1="731.537" x2="2062.22" y2="421.469" stroke="#757575" stroke-opacity="0.35"/>
<line x1="1665.21" y1="731.537" x2="2029.99" y2="421.469" stroke="#757575" stroke-opacity="0.35"/>
<line x1="1681.32" y1="731.537" x2="2046.1" y2="421.469" stroke="#757575" stroke-opacity="0.35"/>
<line x1="1632.98" y1="731.537" x2="1997.76" y2="421.469" stroke="#757575" stroke-opacity="0.35"/>
<line x1="1649.09" y1="731.537" x2="2013.87" y2="421.469" stroke="#757575" stroke-opacity="0.35"/>
<line x1="1600.75" y1="731.537" x2="1965.53" y2="421.469" stroke="#757575" stroke-opacity="0.35"/>
<line x1="1616.86" y1="731.537" x2="1981.65" y2="421.469" stroke="#757575" stroke-opacity="0.35"/>
<line x1="1584.63" y1="731.537" x2="1949.42" y2="421.469" stroke="#757575" stroke-opacity="0.35"/>
<line x1="1568.52" y1="731.537" x2="1933.3" y2="421.469" stroke="#757575" stroke-opacity="0.35"/>
<line x1="1536.29" y1="731.537" x2="1901.07" y2="421.469" stroke="#757575" stroke-opacity="0.35"/>
<line x1="1552.41" y1="731.537" x2="1917.19" y2="421.469" stroke="#757575" stroke-opacity="0.35"/>
<line x1="1504.06" y1="731.537" x2="1868.84" y2="421.469" stroke="#757575" stroke-opacity="0.35"/>
<line x1="1520.18" y1="731.537" x2="1884.96" y2="421.469" stroke="#757575" stroke-opacity="0.35"/>
<line x1="1439.6" y1="731.537" x2="1804.39" y2="421.469" stroke="#757575" stroke-opacity="0.35"/>
<line x1="1471.83" y1="731.537" x2="1836.61" y2="421.469" stroke="#757575" stroke-opacity="0.35"/>
<line x1="1407.37" y1="731.537" x2="1772.16" y2="421.469" stroke="#757575" stroke-opacity="0.35"/>
<line x1="1487.95" y1="731.537" x2="1852.73" y2="421.469" stroke="#757575" stroke-opacity="0.35"/>
<line x1="1423.49" y1="731.537" x2="1788.27" y2="421.469" stroke="#757575" stroke-opacity="0.35"/>
<line x1="1455.72" y1="731.537" x2="1820.5" y2="421.469" stroke="#757575" stroke-opacity="0.35"/>
<line x1="1375.15" y1="731.537" x2="1739.93" y2="421.469" stroke="#757575" stroke-opacity="0.35"/>
<line x1="1391.26" y1="731.537" x2="1756.04" y2="421.469" stroke="#757575" stroke-opacity="0.35"/>
<line x1="1342.92" y1="731.537" x2="1707.7" y2="421.469" stroke="#757575" stroke-opacity="0.35"/>
<line x1="1359.03" y1="731.537" x2="1723.81" y2="421.469" stroke="#757575" stroke-opacity="0.35"/>
<line x1="1326.8" y1="731.537" x2="1691.58" y2="421.469" stroke="#757575" stroke-opacity="0.35"/>
<line x1="1334.47" y1="1039.93" x2="1699.25" y2="729.865" stroke="#757575" stroke-opacity="0.35"/>
<line x1="1302.24" y1="1039.93" x2="1667.02" y2="729.865" stroke="#757575" stroke-opacity="0.35"/>
<line x1="1318.35" y1="1039.93" x2="1683.14" y2="729.865" stroke="#757575" stroke-opacity="0.35"/>
<line x1="1270.01" y1="1039.93" x2="1634.79" y2="729.865" stroke="#757575" stroke-opacity="0.35"/>
<line x1="1286.12" y1="1039.93" x2="1650.91" y2="729.865" stroke="#757575" stroke-opacity="0.35"/>
<line x1="1237.78" y1="1039.93" x2="1602.56" y2="729.865" stroke="#757575" stroke-opacity="0.35"/>
<line x1="1253.9" y1="1039.93" x2="1618.68" y2="729.865" stroke="#757575" stroke-opacity="0.35"/>
<line x1="1221.67" y1="1039.93" x2="1586.45" y2="729.865" stroke="#757575" stroke-opacity="0.35"/>
<line x1="1205.55" y1="1039.93" x2="1570.33" y2="729.865" stroke="#757575" stroke-opacity="0.35"/>
<line x1="1173.32" y1="1039.93" x2="1538.11" y2="729.865" stroke="#757575" stroke-opacity="0.35"/>
<line x1="1189.44" y1="1039.93" x2="1554.22" y2="729.865" stroke="#757575" stroke-opacity="0.35"/>
<line x1="1141.09" y1="1039.93" x2="1505.88" y2="729.865" stroke="#757575" stroke-opacity="0.35"/>
<line x1="1157.21" y1="1039.93" x2="1521.99" y2="729.865" stroke="#757575" stroke-opacity="0.35"/>
<line x1="1076.64" y1="1039.93" x2="1441.42" y2="729.865" stroke="#757575" stroke-opacity="0.35"/>
<line x1="1108.86" y1="1039.93" x2="1473.65" y2="729.865" stroke="#757575" stroke-opacity="0.35"/>
<line x1="1044.41" y1="1039.93" x2="1409.19" y2="729.865" stroke="#757575" stroke-opacity="0.35"/>
<line x1="1124.98" y1="1039.93" x2="1489.76" y2="729.865" stroke="#757575" stroke-opacity="0.35"/>
<line x1="1060.52" y1="1039.93" x2="1425.3" y2="729.865" stroke="#757575" stroke-opacity="0.35"/>
<line x1="1092.75" y1="1039.93" x2="1457.53" y2="729.865" stroke="#757575" stroke-opacity="0.35"/>
<line x1="1012.18" y1="1039.93" x2="1376.96" y2="729.865" stroke="#757575" stroke-opacity="0.35"/>
<line x1="1028.29" y1="1039.93" x2="1393.07" y2="729.865" stroke="#757575" stroke-opacity="0.35"/>
<line x1="979.949" y1="1039.93" x2="1344.73" y2="729.865" stroke="#757575" stroke-opacity="0.35"/>
<line x1="996.064" y1="1039.93" x2="1360.85" y2="729.865" stroke="#757575" stroke-opacity="0.35"/>
<line x1="963.834" y1="1039.93" x2="1328.62" y2="729.865" stroke="#757575" stroke-opacity="0.35"/>
<path d="M1490.31 959.014L1418.51 1019.71L1438.36 1019.71L1509.52 959.014L1490.31 959.014Z" fill="white"/>
<line x1="185.928" y1="309.687" x2="550.71" y2="-0.380784" stroke="#D4D6D9" stroke-opacity="0.5"/>
<line x1="153.699" y1="309.687" x2="518.48" y2="-0.380784" stroke="#D4D6D9" stroke-opacity="0.5"/>
<line x1="169.814" y1="309.687" x2="534.595" y2="-0.380784" stroke="#D4D6D9" stroke-opacity="0.5"/>
<line x1="121.47" y1="309.687" x2="486.252" y2="-0.380784" stroke="#D4D6D9" stroke-opacity="0.5"/>
<line x1="137.584" y1="309.687" x2="502.366" y2="-0.380784" stroke="#D4D6D9" stroke-opacity="0.5"/>
<line x1="89.2406" y1="309.687" x2="454.022" y2="-0.380784" stroke="#D4D6D9" stroke-opacity="0.5"/>
<line x1="105.356" y1="309.687" x2="470.137" y2="-0.380784" stroke="#D4D6D9" stroke-opacity="0.5"/>
<line x1="73.1264" y1="309.687" x2="437.908" y2="-0.380784" stroke="#D4D6D9" stroke-opacity="0.5"/>
<line x1="57.0121" y1="309.687" x2="421.794" y2="-0.380784" stroke="#D4D6D9" stroke-opacity="0.5"/>
<line x1="24.7836" y1="309.687" x2="389.565" y2="-0.380784" stroke="#D4D6D9" stroke-opacity="0.5"/>
<line x1="40.8979" y1="309.687" x2="405.679" y2="-0.380784" stroke="#D4D6D9" stroke-opacity="0.5"/>
<line x1="-7.4459" y1="309.687" x2="357.336" y2="-0.380784" stroke="#D4D6D9" stroke-opacity="0.5"/>
<line x1="8.66836" y1="309.687" x2="373.45" y2="-0.380784" stroke="#D4D6D9" stroke-opacity="0.5"/>
<line x1="-71.9039" y1="309.687" x2="292.878" y2="-0.380784" stroke="#D4D6D9" stroke-opacity="0.5"/>
<line x1="-39.6754" y1="309.687" x2="325.106" y2="-0.380784" stroke="#D4D6D9" stroke-opacity="0.5"/>
<line x1="-104.133" y1="309.687" x2="260.648" y2="-0.380784" stroke="#D4D6D9" stroke-opacity="0.5"/>
<line x1="-23.5611" y1="309.687" x2="341.22" y2="-0.380784" stroke="#D4D6D9" stroke-opacity="0.5"/>
<line x1="-88.0182" y1="309.687" x2="276.763" y2="-0.380784" stroke="#D4D6D9" stroke-opacity="0.5"/>
<line x1="-55.7896" y1="309.687" x2="308.992" y2="-0.380784" stroke="#D4D6D9" stroke-opacity="0.5"/>
<line x1="-136.362" y1="309.687" x2="228.42" y2="-0.380784" stroke="#D4D6D9" stroke-opacity="0.5"/>
<line x1="-120.248" y1="309.687" x2="244.534" y2="-0.380784" stroke="#D4D6D9" stroke-opacity="0.5"/>
<line x1="-168.591" y1="309.687" x2="196.19" y2="-0.380784" stroke="#D4D6D9" stroke-opacity="0.5"/>
<line x1="-152.476" y1="309.687" x2="212.305" y2="-0.380784" stroke="#D4D6D9" stroke-opacity="0.5"/>
<line x1="-184.706" y1="309.687" x2="180.076" y2="-0.380784" stroke="#D4D6D9" stroke-opacity="0.5"/>
<defs>
<filter id="filter0_d" x="355.358" y="453.132" width="1529.76" height="569.6" filterUnits="userSpaceOnUse" color-interpolation-filters="sRGB">
<feFlood flood-opacity="0" result="BackgroundImageFix"/>
<feColorMatrix in="SourceAlpha" type="matrix" values="0 0 0 0 0 0 0 0 0 0 0 0 0 0 0 0 0 0 127 0"/>
<feOffset/>
<feGaussianBlur stdDeviation="10"/>
<feColorMatrix type="matrix" values="0 0 0 0 0 0 0 0 0 0 0 0 0 0 0 0 0 0 0.2 0"/>
<feBlend mode="normal" in2="BackgroundImageFix" result="effect1_dropShadow"/>
<feBlend mode="normal" in="SourceGraphic" in2="effect1_dropShadow" result="shape"/>
</filter>
<filter id="filter1_d" x="1005.27" y="452.207" width="1643.47" height="570.525" filterUnits="userSpaceOnUse" color-interpolation-filters="sRGB">
<feFlood flood-opacity="0" result="BackgroundImageFix"/>
<feColorMatrix in="SourceAlpha" type="matrix" values="0 0 0 0 0 0 0 0 0 0 0 0 0 0 0 0 0 0 127 0"/>
<feOffset/>
<feGaussianBlur stdDeviation="10"/>
<feColorMatrix type="matrix" values="0 0 0 0 0 0 0 0 0 0 0 0 0 0 0 0 0 0 0.2 0"/>
<feBlend mode="normal" in2="BackgroundImageFix" result="effect1_dropShadow"/>
<feBlend mode="normal" in="SourceGraphic" in2="effect1_dropShadow" result="shape"/>
</filter>
</defs>
</svg>
